src/android-contract.svg

<?xml version="1.0" encoding="utf-8"?>
<!-- Generated by IcoMoon.io -->
<!DOCTYPE svg PUBLIC "-//W3C//DTD SVG 1.1//EN" "http://www.w3.org/Graphics/SVG/1.1/DTD/svg11.dtd">
<svg version="1.1" xmlns="http://www.w3.org/2000/svg" xmlns:xlink="http://www.w3.org/1999/xlink" width="512" height="512" viewBox="0 0 512 512">
<path fill="#000000" d="M64 371.2h76.795v76.8h51.205v-128h-128v51.2zM140.795 140.8h-76.795v51.2h128v-128h-51.205v76.8zM320 448h51.2v-76.8h76.8v-51.2h-128v128zM371.2 140.8v-76.8h-51.2v128h128v-51.2h-76.8z"></path>
</svg>

<?xml version="1.0" encoding="utf-8"?>
<!-- Generator: Adobe Illustrator 16.2.1, SVG Export Plug-In . SVG Version: 6.00 Build 0)  -->
<!DOCTYPE svg PUBLIC "-//W3C//DTD SVG 1.1//EN" "http://www.w3.org/Graphics/SVG/1.1/DTD/svg11.dtd">
<svg version="1.1" id="Layer_1" xmlns="http://www.w3.org/2000/svg" xmlns:xlink="http://www.w3.org/1999/xlink" x="0px" y="0px"
	 width="512px" height="512px" viewBox="0 0 512 512" enable-background="new 0 0 512 512" xml:space="preserve">
<g id="Icon_2_">
	<g>
		<path d="M64,371.2h76.795V448H192V320H64V371.2z M140.795,140.8H64V192h128V64h-51.205V140.8z M320,448h51.2v-76.8H448V320H320
			V448z M371.2,140.8V64H320v128h128v-51.2H371.2z"/>
	</g>
</g>
</svg>
